X:1
T:More stuff in D
%%score { 1 | 2 }
L:1/8
M:4/4
K:D
V:1 treble nm="Piano" snm="Pno."
V:2 bass 
V:1
 E2 FG EDEF | A2 F2 ECEG | D2 F2 GA B2 | c2 A2 GF D2 | GAGF A2 FD | FGAF EF G2 | F2 A2 GEFG | %7
 A2 GF GGAB | d8 | G2 B2 B2 A2 | A2 cA GB A2 | F2 AB GBAG | G4 A4 | GBAG ABAF | A4 G4 | %15
 F2 A2 B2 d2 | G2 GB AFAc | B2 G2 BAGB | A2 F2 G2 E2 | FAcA G2 E2 | G2 E2 F2 A2 | B4 G4 | %22
 F2 A2 G4 | FAce d4 |] %24
V:2
 D,4 A,,4 | B,,4 F,4 | G,4 D,4 | G,4 A,4 | D,4 A,,4 | B,,4 F,4 | G,4 D,4 | G,4 A,4 | %8
 [B,,D,]4 [A,,C,]4 | [G,,B,,]4 [F,A,]4 | [E,G,]4 [D,F,]4 | [E,G,]4 [A,C]4 | D,4 A,,4 | B,,4 F,4 | %14
 G,4 D,4 | G,4 A,4 | [D,F,]4 [F,,A,,]4 | [B,,D,]4 [D,F,]4 | [G,B,]4 [B,,D,]4 | [G,B,]4 [F,A,]4 | %20
 D,4 A,,4 | B,,4 F,4 | G,4 D,4 | G,4 A,4 |] %24

